images/icons/star.svg

<svg width="124" height="20" viewBox="0 0 124 20" fill="none" xmlns="http://www.w3.org/2000/svg">
<path d="M10.7208 2.49686C10.3996 1.9434 9.60036 1.9434 9.27921 2.49686L7.0175 6.39462C6.85886 6.66802 6.58465 6.8546 6.27209 6.90181L2.0335 7.54199C1.3216 7.64952 1.07188 8.54836 1.6263 9.00769L4.78388 11.6237C5.07616 11.8659 5.2136 12.2478 5.1426 12.6207L4.31662 16.9583C4.18605 17.644 4.90588 18.1768 5.5235 17.8516L9.51467 15.75C9.81845 15.5901 10.1815 15.5901 10.4853 15.75L14.4765 17.8516C15.0941 18.1768 15.8139 17.644 15.6834 16.9583L14.8574 12.6207C14.7864 12.2478 14.9238 11.8659 15.2161 11.6237L18.3737 9.00769C18.9281 8.54836 18.6784 7.64952 17.9665 7.54199L13.7279 6.90181C13.4153 6.8546 13.1411 6.66802 12.9825 6.39462L10.7208 2.49686Z" fill="#299764"/>
<path d="M36.7208 2.49686C36.3996 1.9434 35.6004 1.9434 35.2792 2.49686L33.0175 6.39462C32.8589 6.66802 32.5846 6.8546 32.2721 6.90181L28.0335 7.54199C27.3216 7.64952 27.0719 8.54836 27.6263 9.00769L30.7839 11.6237C31.0762 11.8659 31.2136 12.2478 31.1426 12.6207L30.3166 16.9583C30.1861 17.644 30.9059 18.1768 31.5235 17.8516L35.5147 15.75C35.8184 15.5901 36.1815 15.5901 36.4853 15.75L40.4765 17.8516C41.0941 18.1768 41.8139 17.644 41.6834 16.9583L40.8574 12.6207C40.7864 12.2478 40.9238 11.8659 41.2161 11.6237L44.3737 9.00769C44.9281 8.54836 44.6784 7.64952 43.9665 7.54199L39.7279 6.90181C39.4153 6.8546 39.1411 6.66802 38.9825 6.39462L36.7208 2.49686Z" fill="#299764"/>
<path d="M62.7208 2.49686C62.3996 1.9434 61.6004 1.9434 61.2792 2.49686L59.0175 6.39462C58.8589 6.66802 58.5846 6.8546 58.2721 6.90181L54.0335 7.54199C53.3216 7.64952 53.0719 8.54836 53.6263 9.00769L56.7839 11.6237C57.0762 11.8659 57.2136 12.2478 57.1426 12.6207L56.3166 16.9583C56.1861 17.644 56.9059 18.1768 57.5235 17.8516L61.5147 15.75C61.8184 15.5901 62.1815 15.5901 62.4853 15.75L66.4765 17.8516C67.0941 18.1768 67.8139 17.644 67.6834 16.9583L66.8574 12.6207C66.7864 12.2478 66.9238 11.8659 67.2161 11.6237L70.3737 9.00769C70.9281 8.54836 70.6784 7.64952 69.9665 7.54199L65.7279 6.90181C65.4153 6.8546 65.1411 6.66802 64.9825 6.39462L62.7208 2.49686Z" fill="#299764"/>
<path d="M88.7208 2.49686C88.3996 1.9434 87.6004 1.9434 87.2792 2.49686L85.0175 6.39462C84.8589 6.66802 84.5846 6.8546 84.2721 6.90181L80.0335 7.54199C79.3216 7.64952 79.0719 8.54836 79.6263 9.00769L82.7839 11.6237C83.0762 11.8659 83.2136 12.2478 83.1426 12.6207L82.3166 16.9583C82.1861 17.644 82.9059 18.1768 83.5235 17.8516L87.5147 15.75C87.8184 15.5901 88.1815 15.5901 88.4853 15.75L92.4765 17.8516C93.0941 18.1768 93.8139 17.644 93.6834 16.9583L92.8574 12.6207C92.7864 12.2478 92.9238 11.8659 93.2161 11.6237L96.3737 9.00769C96.9281 8.54836 96.6784 7.64952 95.9665 7.54199L91.7279 6.90181C91.4153 6.8546 91.1411 6.66802 90.9825 6.39462L88.7208 2.49686Z" fill="#299764"/>
<path d="M114.721 2.49686C114.4 1.9434 113.6 1.9434 113.279 2.49686L111.017 6.39462C110.859 6.66802 110.585 6.8546 110.272 6.90181L106.034 7.54199C105.322 7.64952 105.072 8.54836 105.626 9.00769L108.784 11.6237C109.076 11.8659 109.214 12.2478 109.143 12.6207L108.317 16.9583C108.186 17.644 108.906 18.1768 109.523 17.8516L113.515 15.75C113.818 15.5901 114.182 15.5901 114.485 15.75L118.476 17.8516C119.094 18.1768 119.814 17.644 119.683 16.9583L118.857 12.6207C118.786 12.2478 118.924 11.8659 119.216 11.6237L122.374 9.00769C122.928 8.54836 122.678 7.64952 121.966 7.54199L117.728 6.90181C117.415 6.8546 117.141 6.66802 116.982 6.39462L114.721 2.49686Z" fill="#299764"/>
</svg>

<svg width="124" height="20" fill="none" xmlns="http://www.w3.org/2000/svg"><path d="M10.72 2.497a.833.833 0 0 0-1.44 0L7.017 6.395c-.16.273-.433.46-.746.507l-4.239.64a.833.833 0 0 0-.407 1.466l3.158 2.616c.292.242.43.624.359.997l-.826 4.337a.833.833 0 0 0 1.207.894l3.99-2.102c.304-.16.668-.16.971 0l3.992 2.102a.833.833 0 0 0 1.206-.894l-.826-4.337a1.042 1.042 0 0 1 .36-.997l3.157-2.616a.833.833 0 0 0-.407-1.466l-4.24-.64a1.041 1.041 0 0 1-.745-.507l-2.261-3.898ZM36.72 2.497a.833.833 0 0 0-1.44 0l-2.263 3.898c-.158.273-.432.46-.745.507l-4.238.64a.833.833 0 0 0-.408 1.466l3.158 2.616c.292.242.43.624.359.997l-.826 4.337a.833.833 0 0 0 1.206.894l3.992-2.102c.303-.16.666-.16.97 0l3.992 2.102a.833.833 0 0 0 1.206-.894l-.826-4.337a1.042 1.042 0 0 1 .36-.997l3.157-2.616a.833.833 0 0 0-.407-1.466l-4.24-.64a1.041 1.041 0 0 1-.744-.507L36.72 2.497ZM62.72 2.497a.833.833 0 0 0-1.44 0l-2.263 3.898c-.158.273-.432.46-.745.507l-4.239.64a.833.833 0 0 0-.407 1.466l3.158 2.616c.292.242.43.624.359.997l-.826 4.337a.833.833 0 0 0 1.206.894l3.992-2.102c.303-.16.666-.16.97 0l3.992 2.102a.833.833 0 0 0 1.206-.894l-.826-4.337a1.042 1.042 0 0 1 .36-.997l3.157-2.616a.833.833 0 0 0-.407-1.466l-4.24-.64a1.041 1.041 0 0 1-.745-.507l-2.261-3.898ZM88.72 2.497a.833.833 0 0 0-1.44 0l-2.263 3.898c-.158.273-.432.46-.745.507l-4.239.64a.833.833 0 0 0-.407 1.466l3.158 2.616c.292.242.43.624.359.997l-.826 4.337a.833.833 0 0 0 1.207.894l3.99-2.102c.304-.16.668-.16.971 0l3.992 2.102a.833.833 0 0 0 1.206-.894l-.826-4.337a1.042 1.042 0 0 1 .36-.997l3.157-2.616a.833.833 0 0 0-.407-1.466l-4.24-.64a1.041 1.041 0 0 1-.745-.507l-2.261-3.898ZM114.721 2.497a.834.834 0 0 0-1.442 0l-2.262 3.898c-.158.273-.432.46-.745.507l-4.238.64a.834.834 0 0 0-.408 1.466l3.158 2.616c.292.242.43.624.359.997l-.826 4.337a.833.833 0 0 0 1.206.894l3.992-2.102c.303-.16.667-.16.97 0l3.991 2.102a.833.833 0 0 0 1.207-.894l-.826-4.337a1.042 1.042 0 0 1 .359-.997l3.158-2.616a.834.834 0 0 0-.408-1.466l-4.238-.64a1.043 1.043 0 0 1-.746-.507l-2.261-3.898Z" fill="#299764"/></svg>
